public/icon.svg

<svg width="256" height="256" viewBox="0 0 256 256" fill="none" xmlns="http://www.w3.org/2000/svg">
<path d="M82.5651 37.1446C104.301 4.95179 151.699 4.95179 173.435 37.1446L185.793 55.4485C189.722 61.2675 194.733 66.2778 200.552 70.2067L218.855 82.5652C251.048 104.301 251.048 151.699 218.855 173.435L200.552 185.793L200.008 186.165C194.42 190.036 189.599 194.914 185.793 200.552L173.435 218.856L173.179 219.231C151.414 250.923 104.586 250.923 82.8211 219.231L82.5651 218.856L70.2066 200.552C66.2777 194.733 61.2674 189.722 55.4484 185.793L37.1445 173.435C5.07744 151.784 4.95237 104.671 36.769 82.8212L37.1445 82.5652L55.4484 70.2067C61.0856 66.4005 65.9638 61.5796 69.8351 55.9916L70.2066 55.4485L82.5651 37.1446ZM152.467 51.3022C140.762 33.9662 115.238 33.9662 103.533 51.3022L91.1748 69.6061C85.4328 78.1104 78.1103 85.4324 69.606 91.1744L51.3021 103.533C33.9661 115.238 33.9661 140.762 51.3021 152.467L69.606 164.825V164.826C78.1102 170.568 85.4323 177.89 91.1743 186.394L103.533 204.698C115.238 222.034 140.762 222.034 152.467 204.698L164.825 186.394C170.567 177.89 177.89 170.567 186.394 164.825L204.698 152.467C222.034 140.762 222.034 115.238 204.698 103.533L186.394 91.1749C177.89 85.4329 170.568 78.1104 164.826 69.6061H164.825L152.467 51.3022Z" fill="#FEBE00"/>
</svg>

<svg xmlns="http://www.w3.org/2000/svg" width="256" height="256" fill="none" viewBox="0 0 256 256"><path fill="#febe00" d="M82.565 37.145c21.736-32.193 69.134-32.193 90.87 0l12.358 18.304a54.8 54.8 0 0 0 14.759 14.758l18.303 12.358c32.193 21.736 32.193 69.134 0 90.87l-18.303 12.358-.544.372a54.8 54.8 0 0 0-14.215 14.387l-12.358 18.304-.256.375c-21.765 31.692-68.593 31.692-90.358 0l-.256-.375-12.358-18.304a54.8 54.8 0 0 0-14.759-14.759l-18.303-12.358c-32.068-21.651-32.193-68.764-.376-90.614l.376-.256 18.303-12.358a54.8 54.8 0 0 0 14.387-14.215l.372-.543zm69.902 14.157c-11.705-17.336-37.229-17.336-48.934 0L91.175 69.606a80.1 80.1 0 0 1-21.569 21.568l-18.304 12.359c-17.336 11.705-17.336 37.229 0 48.934l18.304 12.358v.001a80.1 80.1 0 0 1 21.568 21.568l12.359 18.304c11.705 17.336 37.229 17.336 48.934 0l12.358-18.304a80.1 80.1 0 0 1 21.569-21.569l18.304-12.358c17.336-11.705 17.336-37.229 0-48.934l-18.304-12.358a80.1 80.1 0 0 1-21.568-21.569h-.001z"/></svg>
